icons/clear-format.svg

<svg width="24" height="24" viewBox="0 0 24 24" fill="none" xmlns="http://www.w3.org/2000/svg">
<path fill-rule="evenodd" clip-rule="evenodd" d="M4 17H12C12.2652 17 12.5196 17.1054 12.7071 17.2929C12.8946 17.4804 13 17.7348 13 18C13 18.2652 12.8946 18.5196 12.7071 18.7071C12.5196 18.8946 12.2652 19 12 19H4C3.73478 19 3.48043 18.8946 3.29289 18.7071C3.10536 18.5196 3 18.2652 3 18C3 17.7348 3.10536 17.4804 3.29289 17.2929C3.48043 17.1054 3.73478 17 4 17ZM8.378 13.996C8.28 14.666 7.904 15 7.25 15C6.596 15 6.305 14.665 6.378 13.996L8.004 3.996H5.707C5.197 3.889 4.964 3.536 5.005 2.94C5.045 2.344 5.393 2.03 6.047 2H12.23C12.774 2.063 13.03 2.393 12.996 2.99C12.962 3.586 12.636 3.922 12.017 3.996H10.004L8.378 13.996ZM14.974 14.606L17.142 16.775L19.31 14.607C19.758 14.143 20.214 14.143 20.678 14.607C21.141 15.07 21.141 15.526 20.678 15.974L18.509 18.142L20.678 20.31C21.133 20.766 21.133 21.222 20.678 21.678C20.222 22.133 19.766 22.133 19.31 21.678L17.142 19.509L14.974 21.678C14.529 22.144 14.073 22.144 13.607 21.678C13.14 21.211 13.14 20.756 13.607 20.31L15.775 18.142L13.607 15.974C13.15 15.519 13.15 15.063 13.607 14.607C14.063 14.15 14.519 14.15 14.974 14.607V14.606Z" fill="#3A3A47"/>
</svg>

<svg xmlns="http://www.w3.org/2000/svg" width="24" height="24" viewBox="0 0 24 24">
    <path fill="#3A3A47" fill-rule="evenodd" d="M4 17h8a1 1 0 0 1 0 2H4a1 1 0 0 1 0-2zm16.678-2.393c.463.463.463.919 0 1.367l-2.169 2.168 2.169 2.168c.455.456.455.912 0 1.368-.456.455-.912.455-1.368 0l-2.168-2.169-2.168 2.169c-.445.466-.901.466-1.367 0-.467-.467-.467-.922 0-1.368l2.168-2.168-2.168-2.168c-.457-.455-.457-.911 0-1.367.456-.457.912-.457 1.367 0l2.168 2.168 2.168-2.168c.448-.464.904-.464 1.368 0zM12.23 2c.544.063.8.393.766.99-.034.596-.36.932-.979 1.006h-2.013l-1.626 10C8.28 14.666 7.904 15 7.25 15c-.654 0-.945-.335-.872-1.004l1.626-10H5.707c-.51-.107-.743-.46-.702-1.056.04-.596.388-.91 1.042-.94h6.183z"/>
</svg>
